X: 4155
T: BOB MORRIS
R: Strathspey.
%R: strathspey
B: James Kerr "Merry Melodies" v.4 p.18 #155
Z: 2016 John Chambers <jc:trillian.mit.edu>
M: C|
L: 1/8
K: Bb
|:\
B>FD>F B>cd>B | e>dc>B (A<c)c2 |\
B>FD>F B>cd>e | f<d c>d B3d ::\
f>gf>e d>fb>a | g>fe>d (3cdB (3Adc |\
B>FD>F B>cd>e | f<d c>d B3d :|

%%sep 1 1 500
%%sep 1 1 500

